svg/N_Arrows/48.svg

<svg xmlns="http://www.w3.org/2000/svg" viewBox="0 0 744.09 1052.36" xmlns:xlink="http://www.w3.org/1999/xlink"><defs><path id="0" d="m321.43 270.93h68.57v74.28h-68.57z"/></defs><g transform="matrix(4.84956 0 0 4.62795-1251.39-2038.37)" fill="none" stroke="#000"><path d="M341.93664 531.06036A3.977476 3.977476 0 1 1 333.98169 531.06036 3.977476 3.977476 0 1 1 341.93664 531.06036z" transform="matrix(1.99008 0 0 1.83135-330.12-445.35)" opacity=".97" stroke-width="1.407"/><g fill-rule="evenodd"><path d="m340.09 518.86h5v-5h10l-12.589-15-12.411 15h10v5z"/><path d="m351.28 525.18v5h5v10l15-12.589-15-12.411v10h-5z"/><path d="m344.95 535.76h-5.04v5.551h-10.08l12.687 16.654 12.507-16.654h-10.08v-5.551z" stroke-width="1.058"/><path d="m333.5 530.4v-5l-4.747-.126v-10l-15.253 12.716 15.179 12.143-.179-9.732h5z"/></g></g><g font-family="Arial Black" font-size="56"><flowRoot transform="translate(157.06 104.63)"><flowRegion><use xlink:href="#0"/></flowRegion><flowPara>E</flowPara></flowRoot><flowRoot transform="translate(62.987 17.629)"><flowRegion><use xlink:href="#0"/></flowRegion><flowPara>N</flowPara></flowRoot><flowRoot transform="translate(67.751 196.71)"><flowRegion><use xlink:href="#0"/></flowRegion><flowPara>S</flowPara></flowRoot><flowRoot transform="matrix(.87385 0 0 .7732 9.377 177.66)"><flowRegion><use xlink:href="#0"/></flowRegion><flowPara>W</flowPara></flowRoot></g></svg>

<?xml version="1.0" encoding="UTF-8" standalone="no"?>
<!-- Created with Inkscape (http://www.inkscape.org/) -->
<svg
   xmlns:dc="http://purl.org/dc/elements/1.1/"
   xmlns:cc="http://web.resource.org/cc/"
   xmlns:rdf="http://www.w3.org/1999/02/22-rdf-syntax-ns#"
   xmlns:svg="http://www.w3.org/2000/svg"
   xmlns="http://www.w3.org/2000/svg"
   xmlns:sodipodi="http://sodipodi.sourceforge.net/DTD/sodipodi-0.dtd"
   xmlns:inkscape="http://www.inkscape.org/namespaces/inkscape"
   width="744.09448819"
   height="1052.3622047"
   id="svg2"
   sodipodi:version="0.32"
   inkscape:version="0.44.1"
   sodipodi:docbase="F:\Qgis N_arrows\TOT"
   sodipodi:docname="28T.svg"
   inkscape:export-filename="F:\Qgis N_arrows\TOT\28T.png"
   inkscape:export-xdpi="300"
   inkscape:export-ydpi="300">
  <defs
     id="defs4" />
  <sodipodi:namedview
     id="base"
     pagecolor="#ffffff"
     bordercolor="#666666"
     borderopacity="1.0"
     inkscape:pageopacity="0.0"
     inkscape:pageshadow="2"
     inkscape:zoom="0.7"
     inkscape:cx="454.67684"
     inkscape:cy="750.3844"
     inkscape:document-units="px"
     inkscape:current-layer="layer1"
     showgrid="true"
     inkscape:window-width="1280"
     inkscape:window-height="744"
     inkscape:window-x="-4"
     inkscape:window-y="-4" />
  <metadata
     id="metadata7">
    <rdf:RDF>
      <cc:Work
         rdf:about="">
        <dc:format>image/svg+xml</dc:format>
        <dc:type
           rdf:resource="http://purl.org/dc/dcmitype/StillImage" />
      </cc:Work>
    </rdf:RDF>
  </metadata>
  <g
     inkscape:label="Livello 1"
     inkscape:groupmode="layer"
     id="layer1">
    <g
       id="g3838">
      <g
         transform="matrix(4.849561,0,0,4.627945,-1251.39,-2038.366)"
         id="g3653">
        <path
           sodipodi:type="arc"
           style="opacity:0.97000002;fill:none;fill-opacity:1;stroke:black;stroke-width:1.40749419;stroke-miterlimit:4;stroke-dasharray:none;stroke-opacity:1"
           id="path1872"
           sodipodi:cx="337.95917"
           sodipodi:cy="531.06036"
           sodipodi:rx="3.9774756"
           sodipodi:ry="3.9774756"
           d="M 341.93664 531.06036 A 3.9774756 3.9774756 0 1 1  333.98169,531.06036 A 3.9774756 3.9774756 0 1 1  341.93664 531.06036 z"
           transform="matrix(1.990081,0,0,1.83135,-330.1242,-445.3484)" />
        <path
           style="fill:none;fill-rule:evenodd;stroke:black;stroke-width:1px;stroke-linecap:butt;stroke-linejoin:miter;stroke-opacity:1"
           d="M 340.08929,518.86218 L 345.08929,518.86218 L 345.08929,513.86218 L 355.08929,513.86218 L 342.50001,498.86218 L 330.08929,513.86218 L 340.08929,513.86218 L 340.08929,518.86218 z "
           id="path2760" />
        <path
           style="fill:none;fill-rule:evenodd;stroke:black;stroke-width:1px;stroke-linecap:butt;stroke-linejoin:miter;stroke-opacity:1"
           d="M 351.28444,525.18234 L 351.28444,530.18234 L 356.28444,530.18234 L 356.28444,540.18234 L 371.28444,527.59306 L 356.28444,515.18234 L 356.28444,525.18234 L 351.28444,525.18234 z "
           id="path2762" />
        <path
           style="fill:none;fill-rule:evenodd;stroke:black;stroke-width:1.05777824px;stroke-linecap:butt;stroke-linejoin:miter;stroke-opacity:1"
           d="M 344.95052,535.76482 L 339.91156,535.76482 L 339.91156,541.31603 L 329.83366,541.31603 L 342.52102,557.96972 L 355.02842,541.31603 L 344.95052,541.31603 L 344.95052,535.76482 z "
           id="path2764" />
        <path
           style="fill:none;fill-rule:evenodd;stroke:black;stroke-width:1px;stroke-linecap:butt;stroke-linejoin:miter;stroke-opacity:1"
           d="M 333.5,530.3979 L 333.5,525.3979 L 328.75254,525.27163 L 328.75254,515.27163 L 313.5,527.98718 L 328.67857,540.13004 L 328.5,530.3979 L 333.5,530.3979 z "
           id="path2766"
           sodipodi:nodetypes="cccccccc" />
      </g>
      <flowRoot
         inkscape:export-ydpi="300"
         inkscape:export-xdpi="300"
         inkscape:export-filename="F:\Qgis N_arrows\TOT\25T.png"
         transform="translate(157.0553,104.6305)"
         style="font-size:56px;font-family:Arial Black"
         id="flowRoot2798"
         xml:space="preserve"><flowRegion
           id="flowRegion2800"><rect
             style="font-size:56px;font-family:Arial Black"
             y="270.93362"
             x="321.42856"
             height="74.285713"
             width="68.571426"
             id="rect2802" /></flowRegion><flowPara
           id="flowPara2804">E</flowPara></flowRoot>      <flowRoot
         inkscape:export-ydpi="300"
         inkscape:export-xdpi="300"
         inkscape:export-filename="F:\Qgis N_arrows\TOT\25T.png"
         transform="translate(62.98691,17.62937)"
         style="font-size:56px;font-family:Arial Black"
         id="flowRoot2790"
         xml:space="preserve"><flowRegion
           id="flowRegion2792"><rect
             style="font-size:56px;font-family:Arial Black"
             y="270.93362"
             x="321.42856"
             height="74.285713"
             width="68.571426"
             id="rect2794" /></flowRegion><flowPara
           id="flowPara2796">N</flowPara></flowRoot>      <flowRoot
         inkscape:export-ydpi="300"
         inkscape:export-xdpi="300"
         inkscape:export-filename="F:\Qgis N_arrows\TOT\25T.png"
         transform="translate(67.75074,196.7066)"
         style="font-size:56px;font-family:Arial Black"
         id="flowRoot1980"
         xml:space="preserve"><flowRegion
           id="flowRegion1982"><rect
             style="font-size:56px;font-family:Arial Black"
             y="270.93362"
             x="321.42856"
             height="74.285713"
             width="68.571426"
             id="rect1984" /></flowRegion><flowPara
           id="flowPara1986">S</flowPara></flowRoot>      <flowRoot
         inkscape:export-ydpi="300"
         inkscape:export-xdpi="300"
         inkscape:export-filename="F:\Qgis N_arrows\TOT\25T.png"
         transform="matrix(0.873854,0,0,0.773203,9.377409,177.6562)"
         style="font-size:56px;font-family:Arial Black"
         id="flowRoot1988"
         xml:space="preserve"><flowRegion
           id="flowRegion1990"><rect
             style="font-size:56px;font-family:Arial Black"
             y="270.93362"
             x="321.42856"
             height="74.285713"
             width="68.571426"
             id="rect1992" /></flowRegion><flowPara
           id="flowPara1994">W</flowPara></flowRoot>    </g>
  </g>
</svg>
